X:1
T:The Star of Munster
C:anon.
O:Ireland
B:Francis O'Neill: "The Dance Music of Ireland" (1907) no. 495
R:Reel
Z:Transcribed by Frank Nordberg - http://www.musicaviva.com
M:C
L:1/8
K:Ador
|:   "Am"c2Ac "G"B2GB | "Am"AGEF "G"GED2 |\
[1,3 "Am"EAAB cBcd | eaaf "G"gfed :|\
[2,4 "Am"EAAB cded | cA"G"BG "Am"A2z2 :|
|:   "Am"eaab ageg | agbg agef |\
[1,3 "G"g2ga gfef | g2af gfed :|\
[2,4 "G"g2ge "Am"a2ae | "G"b2ba gfed :|
